!!!COM: Fux, Johann Joseph
!!!OMD: Gradus ad Parnassum Exercise
!!!YEC: CC0 1.0 Universal (Public Domain). Mark Gotham and FourScoreAndMore.org waive all rights to this document.
**kern	**kern	**kern	**kern
*part4	*part3	*part2	*part1
*staff4	*staff3	*staff2	*staff1
*I"4	*I"3	*I"2	*I"1
*I'Pno	*I'Pno	*I'Pno	*I'Pno
!!LO:LB:g=z
*clefF4	*clefGv2	*clefG2	*clefG2
*k[]	*k[]	*k[]	*k[]
!!LO:TX:omd:t=
*M4/4	*M4/4	*M4/4	*M4/4
=12	=12	=12	=12
!	!	!	!LO:TX:a:t=Fig. 163; Species&colon; 1; Modal final&colon; d; Cantus firmus&colon; 1
1D	1F	1A	1d
=13	=13	=13	=13
1D	1F	1A	1f
=14	=14	=14	=14
1C	1G	1c	1e
=15	=15	=15	=15
1G	1G	1B	1d
=16	=16	=16	=16
1E	1G	1B	1g
=17	=17	=17	=17
1D	1A	1d	1f
=18	=18	=18	=18
1F	1A	1c	1a
=19	=19	=19	=19
1C	1c	1e	1g
=20	=20	=20	=20
1D	1A	1d	1f
=21	=21	=21	=21
1AA	1A	1c#X	1e
=22	=22	=22	=22
1D	1A	1d	1d
==	==	==	==
*-	*-	*-	*-
!!!software: music21 v.9.7.1
!!!software: music21 v.9.7.1
!!!software: MuseScore 3.4.2
!!!RDF**kern: > = above
!!!RDF**kern: < = below
